icon/lg/require.svg

<?xml version="1.0" encoding="UTF-8" standalone="no" ?>
<svg viewBox="0 0 256 283" version="1.1" xmlns="http://www.w3.org/2000/svg" xmlns:xlink="http://www.w3.org/1999/xlink" preserveAspectRatio="xMidYMid" height="1em" width="1em">
  <g>
    <g transform="translate(27.428571, 44.800000)">
      <circle fill="#43A5EB" cx="100.676571" cy="100.327314" r="100.131657"/>
      <circle fill="#F34B41" cx="101.028571" cy="100.573257" r="66.7428571"/>
      <circle fill="#FEFB1F" cx="101.028571" cy="100.570514" r="33.8285714"/>
    </g>
    <path d="M0.347428571,75.584 L4.06582857,69.5652571 C5.54788571,67.1670857 7.14971429,65.7691429 8.87314286,65.3714286 C10.5947429,64.9737143 12.3282286,65.3138286 14.0726857,66.3926857 C14.6614857,66.7556571 15.1844571,67.2137143 15.6406857,67.7677714 C16.0978286,68.3209143 16.4644571,68.9325714 16.7451429,69.6027429 C17.0249143,70.272 17.1894857,70.9778286 17.2443429,71.7193143 C17.2992,72.4617143 17.2059429,73.1958857 16.9682286,73.9218286 L28.9718857,74.8306286 L27.3947429,77.3824 L15.6105143,76.3382857 L13.1858286,80.2633143 L22.1805714,85.8212571 L20.7250286,88.1764571 L0.347428571,75.584 L0.347428571,75.584 Z M3.9616,74.5627429 L11.1570286,79.0089143 L13.5926857,75.0665143 C14.4914286,73.6118857 14.8214857,72.3602286 14.5801143,71.3106286 C14.3405714,70.2628571 13.6850286,69.4070857 12.6171429,68.7469714 C12.0932571,68.4233143 11.5611429,68.2148571 11.0162286,68.1179429 C10.4731429,68.0228571 9.94102857,68.0310857 9.41988571,68.1435429 C8.89874286,68.256 8.3776,68.512 7.8592,68.9124571 C7.3408,69.3129143 6.85348571,69.8825143 6.39634286,70.6203429 L3.9616,74.5627429 L3.9616,74.5627429 Z M21.9483429,45.8496 L32.5577143,35.6918857 L34.2061714,37.4134857 L25.4299429,45.8157714 L30.8809143,51.5099429 L38.1293714,44.5696 L39.8848,46.4018286 L32.6363429,53.3421714 L38.7254857,59.7019429 L47.4176,51.3792 L49.0669714,53.1017143 L38.5398857,63.1808 L21.9483429,45.8496 L21.9483429,45.8496 Z M69.5442286,25.536 C71.2850286,28.6153143 72.1426286,31.3408 72.1161143,33.7115429 C72.0886857,36.0832 71.1835429,38.0672 69.4061714,39.6608 C69.8678857,40.3721143 70.3981714,40.8667429 70.9970286,41.1465143 C71.5968,41.4253714 72.3648,41.3001143 73.3019429,40.7707429 C73.4134857,40.7076571 73.5862857,40.5952 73.8185143,40.4342857 C74.0507429,40.2733714 74.3094857,40.1051429 74.5929143,39.9296 C74.8772571,39.7549714 75.1405714,39.5830857 75.3846857,39.4157714 C75.6288,39.2484571 75.8061714,39.1332571 75.9177143,39.0701714 L77.1392,41.3833143 L75.8336,42.1220571 C74.7401143,42.7401143 73.7883429,43.2054857 72.9773714,43.5163429 C72.1664,43.8272 71.4185143,43.9113143 70.7346286,43.7686857 C70.0507429,43.6260571 69.44,43.3152 68.9051429,42.8379429 C68.3702857,42.3597714 67.8564571,41.6859429 67.3636571,40.8164571 C66.4521143,41.184 65.472,41.3494857 64.4187429,41.312 C63.3654857,41.2745143 62.2811429,40.9965714 61.1657143,40.48 C60.0475429,39.9634286 58.9476571,39.1780571 57.8678857,38.1266286 C56.7872,37.0742857 55.7659429,35.7001143 54.8068571,34.0041143 C53.6210286,31.9076571 52.8768,30.0315429 52.5732571,28.3766857 C52.2706286,26.7218286 52.2605714,25.2845714 52.5430857,24.0649143 C52.8246857,22.8461714 53.2992,21.8112 53.9675429,20.9609143 C54.6368,20.1124571 55.36,19.4669714 56.1408,19.0244571 C57.1008,18.4822857 58.1348571,18.1622857 59.2438857,18.0653714 C60.352,17.9693714 61.5177143,18.1558857 62.7419429,18.6267429 C63.9652571,19.0985143 65.1337143,19.8875429 66.2473143,20.9956571 C67.36,22.1037714 68.4589714,23.6169143 69.5442286,25.536 L69.5442286,25.536 Z M54.9248,24.8374857 C54.5088,26.8105143 55.1341714,29.2699429 56.8009143,32.2139429 C57.5579429,33.5524571 58.3634286,34.7026286 59.2164571,35.6626286 C60.0685714,36.6235429 60.9453714,37.3650286 61.8441143,37.8870857 C62.7410286,38.4100571 63.6589714,38.7017143 64.5915429,38.7620571 C65.5250286,38.8242286 66.3936,38.6267429 67.1954286,38.1723429 C67.7531429,37.8569143 68.2486857,37.3924571 68.6829714,36.7789714 C69.1172571,36.1664 69.3988571,35.4029714 69.5296,34.4886857 C69.6612571,33.5744 69.5853714,32.5284571 69.3010286,31.3490286 C69.0166857,30.1705143 68.4580571,28.8438857 67.6251429,27.3718857 C66.5654857,25.4966857 65.5442286,24.0576 64.5622857,23.0509714 C63.5803429,22.0452571 62.6285714,21.3622857 61.7024,21.0029714 C60.7771429,20.6427429 59.9515429,20.4982857 59.2265143,20.5696 C58.5024,20.6418286 57.8724571,20.8283429 57.3366857,21.1309714 C56.6665143,21.5104 56.1362286,22.0306286 55.7458286,22.6934857 C55.3554286,23.3563429 55.0820571,24.0731429 54.9248,24.8374857 L54.9248,24.8374857 Z M82.6075429,7.41668571 L85.5396571,6.624 L85.5972571,6.688 C85.6237714,6.78765714 85.6064,6.94582857 85.5451429,7.1616 C85.4838857,7.37737143 85.4665143,7.6288 85.4902857,7.91405714 L89.2809143,21.9318857 C89.6292571,23.2201143 90.0242286,24.1846857 90.4612571,24.8246857 C90.9001143,25.4637714 91.4048,25.9529143 91.9744,26.2912 C92.5430857,26.6285714 93.1611429,26.8278857 93.8276571,26.8864 C94.4941714,26.9458286 95.1798857,26.9056 95.8866286,26.7684571 C96.5659429,26.5316571 97.1812571,26.2317714 97.7344,25.8688 C98.2866286,25.5067429 98.7273143,25.0230857 99.0537143,24.4150857 C99.3801143,23.808 99.5776,23.1104 99.6434286,22.3213714 C99.7092571,21.5323429 99.5611429,20.4681143 99.1990857,19.1296 L95.1149714,4.03382857 L97.6027429,3.36182857 L101.668571,18.3936 C102.076343,19.9030857 102.254629,21.2224 102.2016,22.3524571 C102.146743,23.4816 101.8688,24.4873143 101.3632,25.3668571 C100.8576,26.2473143 100.194743,26.9851429 99.3718857,27.5785143 C98.5508571,28.1718857 97.5698286,28.6235429 96.4315429,28.9307429 C95.3179429,29.2324571 94.2573714,29.3330286 93.2489143,29.2352 C92.2395429,29.1364571 91.3152,28.8411429 90.4795429,28.3510857 C89.6429714,27.8601143 88.9152,27.1808 88.2962286,26.3131429 C87.6754286,25.4454857 87.1442286,24.1947429 86.7035429,22.5609143 L82.6075429,7.41668571 L82.6075429,7.41668571 Z M120.427886,0.424228571 L132.385829,0.317257143 L132.405029,2.54628571 L127.677257,2.58925714 L127.851886,22.1595429 L132.8128,22.1156571 L132.832,24.3062857 L120.373943,24.4178286 L120.354743,22.1888 L125.083429,22.1458286 L124.907886,2.61485714 L120.448914,2.65417143 L120.427886,0.424228571 L120.427886,0.424228571 Z M154.844343,2.69165714 L161.719771,4.36114286 C164.458971,5.02582857 166.283886,6.11565714 167.196343,7.62971429 C168.107886,9.14377143 168.321829,10.8964571 167.838171,12.8886857 C167.674514,13.5616 167.400229,14.2016 167.016229,14.8059429 C166.632229,15.4121143 166.164114,15.9515429 165.614629,16.4251429 C165.065143,16.8987429 164.445257,17.2754286 163.757714,17.5561143 C163.069257,17.8377143 162.3424,17.9776 161.578057,17.9766857 L164.436114,29.6704 L161.521371,28.9627429 L158.8608,17.4354286 L154.376229,16.3465143 L151.881143,26.6212571 L149.191314,25.9675429 L154.844343,2.69165714 L154.844343,2.69165714 Z M156.9344,5.81028571 L154.939429,14.0297143 L159.441371,15.1241143 C161.102629,15.5273143 162.394514,15.4523429 163.317943,14.8982857 C164.241371,14.3442286 164.8512,13.4573714 165.147429,12.2358857 C165.291886,11.6388571 165.325714,11.0665143 165.248914,10.5197714 C165.1712,9.97302857 164.9984,9.46925714 164.728686,9.00937143 C164.4608,8.54857143 164.055771,8.13348571 163.514514,7.76411429 C162.973257,7.39657143 162.281143,7.10948571 161.438171,6.90468571 L156.9344,5.81028571 L156.9344,5.81028571 Z M190.145829,14.1339429 L203.098514,21.0578286 L201.974857,23.1606857 L191.259429,17.4317714 L187.542857,24.3830857 L196.394057,29.1145143 L195.197257,31.3517714 L186.346971,26.6203429 L182.1952,34.3853714 L192.808229,40.0594286 L191.684571,42.1613714 L178.834286,35.2923429 L190.145829,14.1339429 L190.145829,14.1339429 Z M211.754971,36.0658286 C212.0832,36.3181714 212.352914,36.6317714 212.565029,37.0048 C212.776229,37.3787429 212.920686,37.7636571 212.994743,38.1595429 C213.071543,38.5563429 213.0752,38.9467429 213.005714,39.3334857 C212.936229,39.7193143 212.789029,40.0612571 212.559543,40.3584 C212.314514,40.6774857 212.018286,40.9261714 211.669029,41.1053714 C211.318857,41.2845714 210.948571,41.3878857 210.556343,41.4153143 C210.1632,41.4427429 209.762743,41.3961143 209.355886,41.2781714 C208.949029,41.1593143 208.565943,40.9609143 208.203886,40.6838857 C207.853714,40.4150857 207.572114,40.1051429 207.359086,39.7558857 C207.146971,39.4057143 207.005257,39.04 206.935771,38.6569143 C206.868114,38.2747429 206.877257,37.8934857 206.965943,37.5140571 C207.055543,37.1355429 207.226514,36.7808 207.479771,36.4516571 C207.723886,36.1334857 208.024686,35.8866286 208.3776,35.7110857 C208.732343,35.5364571 209.105371,35.4340571 209.499429,35.4066286 C209.891657,35.3792 210.285714,35.4212571 210.682514,35.5309714 C211.0784,35.6425143 211.4368,35.8208 211.754971,36.0658286 L211.754971,36.0658286 Z M232.631771,44.8283429 L240.071314,52.8758857 L238.432914,54.3899429 L235.927771,51.6790857 L225.886171,60.96 C224.736914,62.0233143 223.674514,62.8041143 222.701714,63.3014857 C221.728914,63.7997714 220.769829,64.0484571 219.825371,64.0484571 C218.880914,64.0484571 218.048914,63.8756571 217.327543,63.5309714 C216.606171,63.1853714 215.9488,62.6925714 215.359086,62.0534857 C213.810286,60.3776 213.180343,58.3936 213.471086,56.1014857 L216.3072,55.9405714 C216.302629,56.0493714 216.2432,56.1645714 216.130743,56.288 C216.016457,56.4105143 215.9488,56.5348571 215.925029,56.6610286 L215.900343,57.312 C215.874743,57.4747429 215.889371,57.6886857 215.943314,57.9529143 C215.996343,58.2180571 216.079543,58.4978286 216.195657,58.7931429 C216.310857,59.0875429 216.439771,59.3782857 216.5824,59.6653714 C216.725029,59.9524571 216.901486,60.2084571 217.110857,60.4352 C217.979429,61.376 218.944914,61.7581714 220.005486,61.5808 C221.065143,61.4034286 222.416457,60.5568 224.0576,59.04 L234.129371,49.7307429 L230.997943,46.3424 L232.631771,44.8283429 L232.631771,44.8283429 Z M255.062857,80.9216 L252.220343,80.6025143 C252.200229,80.4662857 252.259657,80.3510857 252.3968,80.2569143 C252.534857,80.1618286 252.625371,80.0740571 252.666514,79.9917714 C253.045943,79.2109714 253.217829,78.3524571 253.181257,77.4125714 C253.142857,76.4726857 252.8192,75.4697143 252.207543,74.4027429 C251.619657,73.3796571 250.831543,72.7012571 249.842286,72.3675429 C248.853029,72.0347429 247.946057,72.1042286 247.124114,72.576 C246.634057,72.8566857 246.2592,73.1830857 246.000457,73.5533714 C245.7408,73.9245714 245.543314,74.3780571 245.408,74.9147429 C245.272686,75.4496 245.224229,76.1508571 245.261714,77.0157714 C245.300114,77.8806857 245.4144,78.9677714 245.605486,80.2770286 C245.769143,81.5424 245.837714,82.6267429 245.809371,83.5300571 C245.781029,84.4324571 245.648457,85.2187429 245.410743,85.8861714 C245.173943,86.5536 244.842057,87.1222857 244.415086,87.5885714 C243.989029,88.0557714 243.452343,88.4736 242.807771,88.8438857 C242.096457,89.2525714 241.302857,89.5305143 240.426971,89.6786286 C239.552,89.8267429 238.666971,89.7801143 237.775543,89.5387429 C236.8832,89.2973714 236.009143,88.8448 235.157029,88.1828571 C234.303086,87.52 233.525943,86.5773714 232.823771,85.3540571 C231.279543,82.6651429 230.923886,79.9862857 231.758629,77.3211429 L234.943086,77.3101714 C234.940343,77.4592 234.861714,77.5780571 234.705371,77.6685714 C234.549943,77.7572571 234.446629,77.8614857 234.396343,77.9785143 C234.045257,78.8608 233.901714,79.8592 233.965714,80.9746286 C234.029714,82.0900571 234.4128,83.2594286 235.115886,84.4818286 C235.472457,85.1035429 235.906743,85.6164571 236.417829,86.0178286 C236.928914,86.4192 237.4656,86.7099429 238.026971,86.8891429 C238.589257,87.0692571 239.172571,87.1341714 239.777829,87.0811429 C240.383086,87.0290286 240.952686,86.8507429 241.486629,86.5435429 C241.909029,86.3012571 242.250971,86.0086857 242.512457,85.6667429 C242.773029,85.3238857 242.958629,84.9005714 243.067429,84.3940571 C243.176229,83.8884571 243.204571,83.2429714 243.1552,82.4603429 C243.103086,81.6768 242.990629,80.6701714 242.816914,79.4395429 C242.613029,78.1074286 242.5216,76.9554286 242.539886,75.9844571 C242.558171,75.0134857 242.6624,74.1778286 242.852571,73.4774857 C243.041829,72.7780571 243.337143,72.1865143 243.741257,71.7046857 C244.143543,71.2219429 244.644571,70.8086857 245.245257,70.464 C246.001371,70.0306286 246.805943,69.7828571 247.658057,69.7225143 C248.510171,69.6612571 249.349486,69.7718857 250.174171,70.0507429 C250.999771,70.3305143 251.774171,70.7794286 252.4992,71.3974857 C253.224229,72.0164571 253.842286,72.7698286 254.352457,73.6594286 C255.002514,74.7931429 255.387429,75.9908571 255.506286,77.2534857 C255.625143,78.5161143 255.476114,79.7376 255.062857,80.9216 L255.062857,80.9216 Z"/>
    <g transform="translate(55.771429, 264.228571)">
      <path d="M2.048,9.23245714 L132.790857,9.23245714" stroke="#4C4C4C" stroke-width="2"/>
      <path d="M143.790629,8.30811429 C144.696686,8.74331429 144.703086,9.46742857 143.803429,9.91725714 L131.651657,16.0137143 C130.752,16.4635429 130.048,16.0082286 130.048,15.0034286 L130.048,3.51268571 C130.048,2.50697143 130.757486,2.04068571 131.664457,2.47497143 L143.790629,8.30811429 L143.790629,8.30811429 Z" fill="#4C4C4C"/>
      <path d="M13.5469714,0.546742857 L22.3085714,9.23245714" stroke="#4C4C4C" stroke-width="2"/>
      <path d="M7.14697143,0.546742857 L15.9085714,9.23245714" stroke="#4C4C4C" stroke-width="2"/>
      <path d="M0.746971429,0.546742857 L9.50857143,9.23245714" stroke="#4C4C4C" stroke-width="2"/>
      <path d="M9.50857143,9.23428571 L0.746057143,17.92" stroke="#4C4C4C" stroke-width="2"/>
      <path d="M15.9085714,9.23428571 L7.14605714,17.92" stroke="#4C4C4C" stroke-width="2"/>
      <path d="M22.3085714,9.23428571 L13.5460571,17.92" stroke="#4C4C4C" stroke-width="2"/>
      <path d="M19.9469714,0.546742857 L28.7094857,9.23245714" stroke="#4C4C4C" stroke-width="2"/>
      <path d="M28.7085714,9.23428571 L19.9460571,17.92" stroke="#4C4C4C" stroke-width="2"/>
    </g>
  </g>
</svg>

<svg width="256" height="283" xmlns="http://www.w3.org/2000/svg" preserveAspectRatio="xMidYMid"><g transform="translate(27.429 44.8)"><circle fill="#43A5EB" cx="100.677" cy="100.327" r="100.132"/><circle fill="#F34B41" cx="101.029" cy="100.573" r="66.743"/><circle fill="#FEFB1F" cx="101.029" cy="100.571" r="33.829"/></g><path d="m.347 75.584 3.719-6.019c1.482-2.398 3.084-3.796 4.807-4.194 1.722-.397 3.455-.057 5.2 1.022a6.317 6.317 0 0 1 1.568 1.375 7.268 7.268 0 0 1 1.104 1.835c.28.669.444 1.375.5 2.116a5.673 5.673 0 0 1-.277 2.203l12.004.909-1.577 2.551-11.784-1.044-2.425 3.925 8.995 5.558-1.456 2.355L.347 75.584Zm3.615-1.021 7.195 4.446 2.436-3.942c.898-1.455 1.228-2.707.987-3.756-.24-1.048-.895-1.904-1.963-2.564a4.546 4.546 0 0 0-1.6-.63 4.126 4.126 0 0 0-1.597.027c-.521.112-1.042.368-1.56.768-.52.4-1.007.97-1.464 1.708l-2.434 3.943ZM21.948 45.85l10.61-10.158 1.648 1.721-8.776 8.403 5.45 5.694 7.25-6.94 1.755 1.832-7.249 6.94 6.09 6.36 8.692-8.323 1.649 1.723L38.54 63.18 21.948 45.85Zm47.596-20.314c1.741 3.08 2.599 5.805 2.572 8.176-.027 2.371-.932 4.355-2.71 5.949.462.711.992 1.206 1.591 1.486.6.278 1.368.153 2.305-.376a7.59 7.59 0 0 0 .517-.337c.232-.16.49-.329.774-.504.284-.175.548-.347.792-.514.244-.168.421-.283.533-.346l1.221 2.313-1.305.74c-1.094.617-2.046 1.082-2.857 1.393-.81.311-1.558.395-2.242.253a3.907 3.907 0 0 1-1.83-.931c-.535-.478-1.049-1.152-1.541-2.022a7.106 7.106 0 0 1-2.945.496c-1.054-.037-2.138-.315-3.253-.832-1.118-.517-2.218-1.302-3.298-2.353-1.08-1.053-2.102-2.427-3.061-4.123-1.186-2.096-1.93-3.972-2.234-5.627-.302-1.655-.312-3.092-.03-4.312.282-1.219.756-2.254 1.425-3.104.669-.849 1.392-1.494 2.173-1.937a7.579 7.579 0 0 1 3.103-.959c1.108-.096 2.274.09 3.498.562 1.223.472 2.392 1.26 3.505 2.369 1.113 1.108 2.212 2.62 3.297 4.54Zm-14.62-.699c-.415 1.974.21 4.433 1.877 7.377.757 1.338 1.562 2.489 2.415 3.449s1.73 1.702 2.628 2.224c.897.523 1.815.815 2.748.875a4.559 4.559 0 0 0 2.603-.59c.558-.315 1.054-.78 1.488-1.393.434-.613.716-1.376.847-2.29.131-.915.055-1.96-.229-3.14-.284-1.178-.843-2.505-1.676-3.977-1.06-1.875-2.08-3.314-3.063-4.321-.982-1.006-1.933-1.689-2.86-2.048-.925-.36-1.75-.505-2.475-.433-.725.072-1.355.258-1.89.561-.67.38-1.2.9-1.591 1.562a6.964 6.964 0 0 0-.821 2.144Zm27.684-17.42 2.932-.793.057.064c.027.1.01.258-.052.474a2.12 2.12 0 0 0-.055.752l3.79 14.018c.35 1.288.744 2.253 1.181 2.893.44.639.944 1.128 1.513 1.466a4.33 4.33 0 0 0 1.854.595c.666.06 1.352.02 2.059-.118a8.375 8.375 0 0 0 1.847-.9 3.925 3.925 0 0 0 1.32-1.453c.326-.607.524-1.305.59-2.094.065-.789-.083-1.853-.445-3.191L95.115 4.034l2.488-.672 4.066 15.032c.407 1.51.586 2.828.533 3.958-.055 1.13-.333 2.135-.839 3.015a6.98 6.98 0 0 1-1.991 2.212c-.821.593-1.802 1.045-2.94 1.352-1.114.301-2.175.402-3.183.304a6.698 6.698 0 0 1-2.77-.884c-.836-.49-1.564-1.17-2.183-2.038-.62-.868-1.152-2.118-1.592-3.752L82.608 7.417Zm37.82-6.993 11.958-.107.019 2.23-4.728.042.175 19.57 4.96-.043.02 2.19-12.458.112-.02-2.23 4.73-.042-.176-19.531-4.46.04-.02-2.23Zm34.416 2.268 6.876 1.67c2.739.664 4.564 1.754 5.476 3.268.912 1.514 1.126 3.266.642 5.259a6.362 6.362 0 0 1-.822 1.917 7.255 7.255 0 0 1-1.401 1.62c-.55.473-1.17.85-1.857 1.13a5.684 5.684 0 0 1-2.18.42l2.858 11.694-2.915-.707-2.66-11.528-4.485-1.088-2.495 10.274-2.69-.653 5.653-23.276Zm2.09 3.118-1.995 8.22 4.502 1.094c1.662.403 2.954.328 3.877-.226.923-.554 1.533-1.44 1.83-2.662.144-.597.178-1.17.1-1.716a4.093 4.093 0 0 0-.52-1.51c-.267-.461-.672-.877-1.213-1.246-.542-.367-1.234-.655-2.077-.86l-4.504-1.094Zm33.212 8.324 12.953 6.924-1.124 2.103-10.716-5.73-3.716 6.952 8.851 4.732-1.197 2.237-8.85-4.732-4.152 7.765 10.613 5.674-1.123 2.102-12.85-6.869 11.31-21.158Zm21.609 21.932c.328.252.598.566.81.939.211.374.356.759.43 1.155.077.396.08.787.01 1.173-.069.386-.216.728-.445 1.025-.245.32-.542.568-.891.747-.35.18-.72.283-1.113.31a3.432 3.432 0 0 1-1.2-.137 3.505 3.505 0 0 1-1.152-.594 3.402 3.402 0 0 1-.845-.928 3.217 3.217 0 0 1-.423-1.1 2.816 2.816 0 0 1 .03-1.142c.09-.378.26-.733.514-1.062.244-.319.545-.565.898-.74a2.985 2.985 0 0 1 1.121-.305c.393-.028.787.014 1.184.124.395.112.754.29 1.072.535Zm20.877 8.762 7.44 8.048-1.64 1.514-2.504-2.71-10.042 9.28c-1.15 1.063-2.211 1.844-3.184 2.341-.973.499-1.932.747-2.877.747-.944 0-1.776-.172-2.497-.517a6.492 6.492 0 0 1-1.969-1.478c-1.549-1.675-2.179-3.66-1.888-5.952l2.836-.16c-.004.108-.064.224-.176.347a.758.758 0 0 0-.206.373l-.025.651c-.025.163-.01.377.043.64.053.266.137.546.253.841.115.295.244.585.386.872.143.287.32.543.529.77.868.941 1.834 1.323 2.894 1.146 1.06-.178 2.411-1.024 4.053-2.541l10.071-9.31-3.131-3.388 1.634-1.514Zm22.43 36.094-2.842-.32c-.02-.136.04-.25.177-.345.138-.095.228-.183.27-.265.379-.781.55-1.64.514-2.58-.038-.94-.362-1.942-.973-3.01-.588-1.022-1.376-1.7-2.366-2.034-.989-.333-1.896-.264-2.718.208-.49.28-.865.607-1.124.977-.26.372-.457.825-.592 1.362-.135.535-.184 1.236-.146 2.1.038.866.152 1.953.343 3.262.164 1.265.233 2.35.204 3.253-.028.902-.16 1.689-.398 2.356a4.925 4.925 0 0 1-.996 1.703c-.426.467-.963.885-1.607 1.255a7.117 7.117 0 0 1-2.381.835 6.127 6.127 0 0 1-2.651-.14c-.893-.242-1.767-.694-2.619-1.356-.854-.663-1.631-1.606-2.333-2.829-1.544-2.689-1.9-5.368-1.065-8.033l3.184-.01c-.003.148-.081.267-.238.358-.155.088-.258.192-.309.31-.35.882-.494 1.88-.43 2.996.064 1.115.447 2.284 1.15 3.507.356.622.79 1.134 1.302 1.536a5.127 5.127 0 0 0 1.609.871c.562.18 1.146.245 1.75.192a4.09 4.09 0 0 0 1.71-.537 3.397 3.397 0 0 0 1.025-.877c.261-.343.447-.766.555-1.273.11-.506.138-1.151.088-1.934a42.785 42.785 0 0 0-.338-3.02c-.204-1.333-.295-2.485-.277-3.456.018-.97.122-1.806.313-2.507.189-.699.484-1.29.888-1.772a5.484 5.484 0 0 1 1.504-1.241 5.592 5.592 0 0 1 2.413-.741 6.361 6.361 0 0 1 2.516.328c.826.28 1.6.728 2.325 1.346a8.5 8.5 0 0 1 1.853 2.262 8.814 8.814 0 0 1 1.154 3.594 8.564 8.564 0 0 1-.443 3.669Z"/><path d="M57.82 273.461h130.742" stroke="#4C4C4C" stroke-width="2"/><path d="M199.562 272.537c.906.435.913 1.159.013 1.609l-12.152 6.096c-.9.45-1.604-.005-1.604-1.01v-11.49c0-1.006.71-1.473 1.617-1.038l12.126 5.833Z" fill="#4C4C4C"/><path d="m69.318 264.775 8.762 8.686M62.918 264.775l8.762 8.686M56.518 264.775l8.762 8.686M65.28 273.463l-8.763 8.686M71.68 273.463l-8.763 8.686M78.08 273.463l-8.763 8.686M75.718 264.775l8.763 8.686M84.48 273.463l-8.763 8.686" stroke="#4C4C4C" stroke-width="2"/></svg>
